icons/arrow-up-24.svg

<svg xmlns="http://www.w3.org/2000/svg" width="24" height="24" viewBox="0 0 24 24"><path d="M18.655 10.405a.75.75 0 01-1.06 0l-4.97-4.97v14.44a.75.75 0 01-1.5 0V5.435l-4.97 4.97a.749.749 0 01-1.275-.326.749.749 0 01.215-.734l6.25-6.25a.75.75 0 011.06 0l6.25 6.25a.75.75 0 010 1.06z"/></svg>

<svg xmlns="http://www.w3.org/2000/svg" width="24" height="24" viewBox="0 0 24 24">
  <defs/>
  <path d="M18.655,10.405 C18.362,10.697 17.888,10.697 17.595,10.405 L12.625,5.435 L12.625,19.875 C12.625,20.289 12.289,20.625 11.875,20.625 C11.461,20.625 11.125,20.289 11.125,19.875 L11.125,5.435 L6.155,10.405 C5.968,10.606 5.686,10.688 5.421,10.62 C5.155,10.553 4.947,10.345 4.88,10.079 C4.812,9.814 4.894,9.532 5.095,9.345 L11.345,3.095 C11.638,2.803 12.112,2.803 12.405,3.095 L18.655,9.345 C18.947,9.638 18.947,10.112 18.655,10.405 Z"/>
</svg>
